logo.svg

<svg width="342" height="161" viewBox="0 0 342 161" fill="none" xmlns="http://www.w3.org/2000/svg">
<g clip-path="url(#clip0_483_42)">
<path d="M0.929657 122.774L65.1215 0.840332L129.313 122.774H96.9674L65.0137 59.9314L32.1777 122.774H0.929657Z" fill="white"/>
<path d="M196.112 48.608C206.924 48.608 216.118 52.222 223.714 59.4402C231.31 66.6682 235.104 75.3988 235.104 85.6418C235.104 95.9535 231.34 104.714 223.812 111.942C216.284 119.17 207.188 122.774 196.514 122.774H196.416L136.076 122.676V95.983H196.514C199.455 95.983 201.983 94.9813 204.11 92.9778C206.228 90.9744 207.296 88.5291 207.296 85.6418C207.296 82.7545 206.237 80.3092 204.11 78.3057C201.993 76.3023 199.455 75.3006 196.514 75.3006H169.324C158.65 75.3006 149.534 71.6866 141.977 64.4684C134.42 57.2502 130.636 48.5098 130.636 38.2668C130.636 27.9551 134.4 19.195 141.928 11.967C149.456 4.74878 158.591 1.13477 169.324 1.13477L229.664 1.23297V1.89096C229.664 16.2684 217.519 27.9256 202.542 27.9256H169.471C166.579 27.9256 163.747 28.9568 161.688 30.9209C159.591 32.9243 158.542 35.3795 158.542 38.2766C158.542 41.1737 159.591 43.6289 161.688 45.6323C163.737 47.5964 166.57 48.6178 169.471 48.6178H196.112V48.608Z" fill="white"/>
<path d="M314.244 48.608V1.13477H340.983V122.774H314.244V75.3006H268.626V122.774H241.887V1.13477H254.551C262.324 1.13477 268.626 7.44947 268.626 15.2373V48.608H314.244Z" fill="white"/>
<path d="M65.1196 78.7622L41.6868 122.773H87.5199L65.1196 78.7622Z" fill="#FC8823"/>
<path d="M1.86307 133.645L15.1641 147.797L28.4455 133.645V160.328H22.535V148.356L15.1445 156.655L7.77354 148.356V160.328H1.86307V133.645Z" fill="white"/>
<path d="M30.3473 160.328V133.645L51.6563 133.665V139.518H36.2676V144.055H51.6563V149.908H36.2676V154.465H51.6563V160.318H30.3473V160.328Z" fill="white"/>
<path d="M63.1041 133.645C64.8684 133.635 66.5739 133.959 68.2206 134.636C69.8673 135.314 71.3278 136.286 72.602 137.553C73.8762 138.82 74.8564 140.264 75.5229 141.884C76.1894 143.505 76.5325 145.204 76.5325 146.991C76.5325 148.788 76.1797 150.517 75.4641 152.166C74.7584 153.816 73.7978 155.23 72.5922 156.419C71.3866 157.607 69.9555 158.55 68.299 159.257C66.6425 159.964 64.9076 160.318 63.0943 160.318H53.616V133.635H63.1041V133.645ZM68.4264 152.274C69.8869 150.811 70.622 149.053 70.622 146.991C70.622 144.929 69.8869 143.171 68.4264 141.707C66.966 140.244 65.1919 139.517 63.1237 139.517H59.5362V154.464H63.1237C65.2017 154.464 66.966 153.738 68.4264 152.274Z" fill="white"/>
<path d="M84.3646 160.328H78.4541V133.645H84.3646V160.328Z" fill="white"/>
<path d="M86.2752 160.328L100.468 133.577L114.661 160.328H107.506L100.439 146.54L93.1756 160.328H86.2752Z" fill="white"/>
<path d="M145.929 144.055C148.223 144.055 150.173 144.85 151.781 146.432C153.388 148.013 154.192 149.928 154.192 152.177C154.192 154.435 153.398 156.36 151.8 157.941C150.203 159.523 148.282 160.318 146.017 160.318H145.998L133.216 160.298V154.445H146.017C146.645 154.445 147.174 154.229 147.625 153.787C148.076 153.345 148.301 152.815 148.301 152.177C148.301 151.538 148.076 151.008 147.625 150.566C147.174 150.124 146.635 149.908 146.017 149.908H140.254C137.99 149.908 136.059 149.113 134.461 147.531C132.863 145.95 132.06 144.035 132.06 141.786C132.06 139.528 132.854 137.603 134.451 136.022C136.049 134.44 137.98 133.645 140.254 133.645L153.035 133.665V139.518H140.234C139.607 139.518 139.078 139.734 138.637 140.176C138.196 140.618 137.97 141.148 137.97 141.786C137.97 142.425 138.196 142.955 138.637 143.397C139.078 143.839 139.607 144.055 140.234 144.055H145.929Z" fill="#FC8823"/>
<path d="M162.818 135.451C164.876 134.253 167.121 133.654 169.561 133.654C172.002 133.654 174.247 134.253 176.305 135.451C178.363 136.65 179.99 138.27 181.196 140.313C182.402 142.355 183 144.595 183 147.01C183 149.426 182.402 151.665 181.196 153.708C179.99 155.751 178.363 157.371 176.305 158.569C174.247 159.768 172.002 160.367 169.561 160.367C167.121 160.367 164.876 159.768 162.818 158.569C160.759 157.371 159.132 155.751 157.927 153.708C156.721 151.665 156.123 149.426 156.123 147.01C156.123 144.595 156.721 142.355 157.927 140.313C159.132 138.27 160.769 136.65 162.818 135.451ZM174.884 152.294C176.364 150.831 177.099 149.073 177.099 147.01C177.099 144.948 176.364 143.19 174.884 141.717C173.404 140.244 171.63 139.517 169.561 139.517C167.493 139.517 165.719 140.254 164.249 141.717C162.779 143.19 162.043 144.948 162.043 147.01C162.043 149.073 162.779 150.831 164.249 152.294C165.719 153.757 167.493 154.484 169.561 154.484C171.63 154.494 173.413 153.757 174.884 152.294Z" fill="#FC8823"/>
<path d="M190.841 133.645V154.475H206.23V160.328H184.931V133.645H190.841Z" fill="#FC8823"/>
<path d="M224.215 149.437V133.645H230.126V149.437C230.126 151.411 229.636 153.227 228.655 154.907C227.675 156.576 226.352 157.902 224.666 158.874C222.98 159.847 221.147 160.338 219.167 160.338C217.178 160.338 215.345 159.847 213.669 158.874C211.983 157.902 210.659 156.576 209.679 154.907C208.699 153.237 208.209 151.411 208.209 149.437V133.645H214.119V149.437C214.119 150.821 214.61 152 215.6 152.992C216.589 153.974 217.776 154.475 219.167 154.475C220.559 154.475 221.745 153.984 222.735 152.992C223.715 152 224.215 150.821 224.215 149.437Z" fill="#FC8823"/>
<path d="M232.056 139.518V133.665H257.404V139.518H247.69V160.328H241.78V139.518H232.056Z" fill="#FC8823"/>
<path d="M265.256 160.328H259.346V133.645H265.256V160.328Z" fill="#FC8823"/>
<path d="M273.862 135.451C275.92 134.253 278.165 133.654 280.605 133.654C283.046 133.654 285.29 134.253 287.349 135.451C289.407 136.65 291.034 138.27 292.24 140.313C293.446 142.355 294.043 144.595 294.043 147.01C294.043 149.426 293.446 151.665 292.24 153.708C291.034 155.751 289.407 157.371 287.349 158.569C285.29 159.768 283.046 160.367 280.605 160.367C278.165 160.367 275.92 159.768 273.862 158.569C271.803 157.371 270.176 155.751 268.97 153.708C267.765 151.665 267.167 149.426 267.167 147.01C267.167 144.595 267.765 142.355 268.97 140.313C270.176 138.27 271.803 136.65 273.862 135.451ZM285.928 152.294C287.408 150.831 288.143 149.073 288.143 147.01C288.143 144.948 287.408 143.19 285.928 141.717C284.447 140.244 282.673 139.517 280.605 139.517C278.537 139.517 276.763 140.254 275.293 141.717C273.822 143.18 273.087 144.948 273.087 147.01C273.087 149.073 273.822 150.831 275.293 152.294C276.763 153.757 278.537 154.484 280.605 154.484C282.673 154.484 284.447 153.757 285.928 152.294Z" fill="#FC8823"/>
<path d="M311.971 146.991V133.635H317.882V160.17L301.885 147.227V160.318H295.975V133.635L311.971 146.991Z" fill="#FC8823"/>
<path d="M333.643 144.055C335.937 144.055 337.887 144.85 339.495 146.432C341.102 148.013 341.906 149.928 341.906 152.177C341.906 154.435 341.112 156.36 339.515 157.941C337.917 159.523 335.996 160.318 333.732 160.318H333.712L320.93 160.298V154.445H333.732C334.359 154.445 334.888 154.229 335.339 153.787C335.79 153.345 336.015 152.815 336.015 152.177C336.015 151.538 335.79 151.008 335.339 150.566C334.888 150.124 334.349 149.908 333.732 149.908H327.968C325.704 149.908 323.773 149.113 322.175 147.531C320.578 145.95 319.774 144.035 319.774 141.786C319.774 139.528 320.568 137.603 322.165 136.022C323.763 134.44 325.694 133.645 327.968 133.645L340.75 133.665V139.518H327.948C327.321 139.518 326.792 139.734 326.351 140.176C325.91 140.618 325.684 141.148 325.684 141.786C325.684 142.425 325.91 142.955 326.351 143.397C326.792 143.839 327.321 144.055 327.948 144.055H333.643Z" fill="#FC8823"/>
</g>
<defs>
<clipPath id="clip0_483_42">
<rect width="340.974" height="159.527" fill="white" transform="translate(0.929871 0.840332)"/>
</clipPath>
</defs>
</svg>

<?xml version="1.0" encoding="utf-8"?>
<!-- Generator: Adobe Illustrator 24.3.0, SVG Export Plug-In . SVG Version: 6.00 Build 0)  -->
<svg version="1.1" id="Layer_1" xmlns="http://www.w3.org/2000/svg" xmlns:xlink="http://www.w3.org/1999/xlink" x="0px" y="0px"
	 viewBox="0 0 342 161" style="enable-background:new 0 0 342 161;" xml:space="preserve">
<style type="text/css">
	.st0{clip-path:url(#SVGID_2_);}
	.st1{fill:#FFFFFF;}
	.st2{fill:#FC8823;}
</style>
<g>
	<defs>
		<rect id="SVGID_1_" x="0.9" y="0.8" width="341" height="159.5"/>
	</defs>
	<clipPath id="SVGID_2_">
		<use xlink:href="#SVGID_1_"  style="overflow:visible;"/>
	</clipPath>
	<g class="st0">
		<path class="st1" d="M0.9,122.8L65.1,0.8l64.2,121.9H97L65,59.9l-32.8,62.8H0.9z"/>
		<path class="st1" d="M196.1,48.6c10.8,0,20,3.6,27.6,10.8c7.6,7.2,11.4,16,11.4,26.2c0,10.3-3.8,19.1-11.3,26.3
			c-7.5,7.2-16.6,10.8-27.3,10.8h-0.1l-60.3-0.1V96h60.4c2.9,0,5.5-1,7.6-3c2.1-2,3.2-4.4,3.2-7.3s-1.1-5.3-3.2-7.3
			c-2.1-2-4.7-3-7.6-3h-27.2c-10.7,0-19.8-3.6-27.3-10.8c-7.6-7.2-11.3-16-11.3-26.2c0-10.3,3.8-19.1,11.3-26.3
			c7.5-7.2,16.7-10.8,27.4-10.8l60.3,0.1v0.7c0,14.4-12.1,26-27.1,26h-33.1c-2.9,0-5.7,1-7.8,3c-2.1,2-3.1,4.5-3.1,7.4
			s1,5.4,3.1,7.4c2,2,4.9,3,7.8,3L196.1,48.6L196.1,48.6z"/>
		<path class="st1" d="M314.2,48.6V1.1H341v121.6h-26.7V75.3h-45.6v47.5h-26.7V1.1h12.7c7.8,0,14.1,6.3,14.1,14.1v33.4H314.2z"/>
		<path class="st2" d="M65.1,78.8l-23.4,44h45.8L65.1,78.8z"/>
		<path class="st1" d="M1.9,133.6l13.3,14.2l13.3-14.2v26.7h-5.9v-12l-7.4,8.3l-7.4-8.3v12H1.9V133.6z"/>
		<path class="st1" d="M30.3,160.3v-26.7l21.3,0v5.9H36.3v4.5h15.4v5.9H36.3v4.6h15.4v5.9L30.3,160.3L30.3,160.3z"/>
		<path class="st1" d="M63.1,133.6c1.8,0,3.5,0.3,5.1,1c1.6,0.7,3.1,1.6,4.4,2.9c1.3,1.3,2.3,2.7,2.9,4.3c0.7,1.6,1,3.3,1,5.1
			c0,1.8-0.4,3.5-1.1,5.2c-0.7,1.6-1.7,3.1-2.9,4.3c-1.2,1.2-2.6,2.1-4.3,2.8c-1.7,0.7-3.4,1.1-5.2,1.1h-9.5v-26.7L63.1,133.6
			L63.1,133.6z M68.4,152.3c1.5-1.5,2.2-3.2,2.2-5.3s-0.7-3.8-2.2-5.3c-1.5-1.5-3.2-2.2-5.3-2.2h-3.6v14.9h3.6
			C65.2,154.5,67,153.7,68.4,152.3z"/>
		<path class="st1" d="M84.4,160.3h-5.9v-26.7h5.9V160.3z"/>
		<path class="st1" d="M86.3,160.3l14.2-26.8l14.2,26.8h-7.2l-7.1-13.8l-7.3,13.8H86.3z"/>
		<path class="st1" d="M145.9,144.1c2.3,0,4.2,0.8,5.9,2.4c1.6,1.6,2.4,3.5,2.4,5.7c0,2.3-0.8,4.2-2.4,5.8c-1.6,1.6-3.5,2.4-5.8,2.4
			h0l-12.8,0v-5.9H146c0.6,0,1.2-0.2,1.6-0.7s0.7-1,0.7-1.6c0-0.6-0.2-1.2-0.7-1.6s-1-0.7-1.6-0.7h-5.8c-2.3,0-4.2-0.8-5.8-2.4
			c-1.6-1.6-2.4-3.5-2.4-5.7c0-2.3,0.8-4.2,2.4-5.8c1.6-1.6,3.5-2.4,5.8-2.4l12.8,0v5.9h-12.8c-0.6,0-1.2,0.2-1.6,0.7
			c-0.4,0.4-0.7,1-0.7,1.6c0,0.6,0.2,1.2,0.7,1.6c0.4,0.4,1,0.7,1.6,0.7H145.9z"/>
		<path class="st1" d="M162.8,135.5c2.1-1.2,4.3-1.8,6.7-1.8c2.4,0,4.7,0.6,6.7,1.8c2.1,1.2,3.7,2.8,4.9,4.9c1.2,2,1.8,4.3,1.8,6.7
			c0,2.4-0.6,4.7-1.8,6.7c-1.2,2-2.8,3.7-4.9,4.9c-2.1,1.2-4.3,1.8-6.7,1.8c-2.4,0-4.7-0.6-6.7-1.8c-2.1-1.2-3.7-2.8-4.9-4.9
			c-1.2-2-1.8-4.3-1.8-6.7c0-2.4,0.6-4.7,1.8-6.7C159.1,138.3,160.8,136.6,162.8,135.5z M174.9,152.3c1.5-1.5,2.2-3.2,2.2-5.3
			c0-2.1-0.7-3.8-2.2-5.3c-1.5-1.5-3.3-2.2-5.3-2.2c-2.1,0-3.8,0.7-5.3,2.2c-1.5,1.5-2.2,3.2-2.2,5.3c0,2.1,0.7,3.8,2.2,5.3
			c1.5,1.5,3.2,2.2,5.3,2.2C171.6,154.5,173.4,153.8,174.9,152.3z"/>
		<path class="st1" d="M190.8,133.6v20.8h15.4v5.9h-21.3v-26.7H190.8z"/>
		<path class="st1" d="M224.2,149.4v-15.8h5.9v15.8c0,2-0.5,3.8-1.5,5.5c-1,1.7-2.3,3-4,4c-1.7,1-3.5,1.5-5.5,1.5
			c-2,0-3.8-0.5-5.5-1.5c-1.7-1-3-2.3-4-4c-1-1.7-1.5-3.5-1.5-5.5v-15.8h5.9v15.8c0,1.4,0.5,2.6,1.5,3.6c1,1,2.2,1.5,3.6,1.5
			c1.4,0,2.6-0.5,3.6-1.5C223.7,152,224.2,150.8,224.2,149.4z"/>
		<path class="st1" d="M232.1,139.5v-5.9h25.3v5.9h-9.7v20.8h-5.9v-20.8H232.1z"/>
		<path class="st1" d="M265.3,160.3h-5.9v-26.7h5.9V160.3z"/>
		<path class="st1" d="M273.9,135.5c2.1-1.2,4.3-1.8,6.7-1.8c2.4,0,4.7,0.6,6.7,1.8c2.1,1.2,3.7,2.8,4.9,4.9c1.2,2,1.8,4.3,1.8,6.7
			c0,2.4-0.6,4.7-1.8,6.7c-1.2,2-2.8,3.7-4.9,4.9c-2.1,1.2-4.3,1.8-6.7,1.8c-2.4,0-4.7-0.6-6.7-1.8c-2.1-1.2-3.7-2.8-4.9-4.9
			c-1.2-2-1.8-4.3-1.8-6.7c0-2.4,0.6-4.7,1.8-6.7C270.2,138.3,271.8,136.6,273.9,135.5z M285.9,152.3c1.5-1.5,2.2-3.2,2.2-5.3
			c0-2.1-0.7-3.8-2.2-5.3c-1.5-1.5-3.3-2.2-5.3-2.2c-2.1,0-3.8,0.7-5.3,2.2c-1.5,1.5-2.2,3.2-2.2,5.3c0,2.1,0.7,3.8,2.2,5.3
			c1.5,1.5,3.2,2.2,5.3,2.2C282.7,154.5,284.4,153.8,285.9,152.3z"/>
		<path class="st1" d="M312,147v-13.4h5.9v26.5l-16-12.9v13.1H296v-26.7L312,147z"/>
		<path class="st1" d="M333.6,144.1c2.3,0,4.2,0.8,5.9,2.4c1.6,1.6,2.4,3.5,2.4,5.7c0,2.3-0.8,4.2-2.4,5.8c-1.6,1.6-3.5,2.4-5.8,2.4
			h0l-12.8,0v-5.9h12.8c0.6,0,1.2-0.2,1.6-0.7c0.5-0.4,0.7-1,0.7-1.6c0-0.6-0.2-1.2-0.7-1.6c-0.5-0.4-1-0.7-1.6-0.7H328
			c-2.3,0-4.2-0.8-5.8-2.4c-1.6-1.6-2.4-3.5-2.4-5.7c0-2.3,0.8-4.2,2.4-5.8c1.6-1.6,3.5-2.4,5.8-2.4l12.8,0v5.9h-12.8
			c-0.6,0-1.2,0.2-1.6,0.7c-0.4,0.4-0.7,1-0.7,1.6c0,0.6,0.2,1.2,0.7,1.6c0.4,0.4,1,0.7,1.6,0.7H333.6z"/>
	</g>
</g>
</svg>
